X:230
T: Rathmore Farmer
S: B.Breathnach: "Ceol Rince na hEireann" II/78 (gan ainm)
Z: B.Black
L: 1/8
M: 6/8
R: slide
Q: 375
K: D
(3d/c/B/|A2F FEF|A2F F2E|FAF E2D|EFE EDB,|
A2F FEF|A2F F2E|FAF EDE|D3 D2 :|
e|fef d2f|edB A2f|gfg e2d|cec A2A|
fef d2f|edB A2e|faf ede|d3 d2 :|
